chrome/img/svgs/settings-icon.svg

<?xml version="1.0" encoding="UTF-8"?>
<svg width="68px" height="70px" viewBox="0 0 68 70" version="1.1" xmlns="http://www.w3.org/2000/svg" xmlns:xlink="http://www.w3.org/1999/xlink">
    <!-- Generator: Sketch 42 (36781) - http://www.bohemiancoding.com/sketch -->
    <title>settings-icon</title>
    <desc>Created with Sketch.</desc>
    <defs></defs>
    <g id="Icons" stroke="none" stroke-width="1" fill="none" fill-rule="evenodd">
        <path d="M29.3636364,0.777793333 C27.23655,0.777793333 25.5,2.52568556 25.5,4.66668222 L25.5,9.18751556 C24.2585364,9.60076444 23.0580273,10.11122 21.90195,10.69446 L18.71445,7.48612667 C17.2104136,5.97229889 14.7369909,5.97229889 13.2329545,7.48612667 L6.66477273,14.0972378 C5.16081364,15.6110889 5.16081364,18.0764422 6.66477273,19.5902933 L9.87645909,22.8229322 C9.29405455,23.9923756 8.76682273,25.1882089 8.35511364,26.44446 L3.86363636,26.44446 C1.73655015,26.44446 1.54545454e-07,28.1923522 1.54545454e-07,30.3333256 L1.54545454e-07,39.6666822 C1.54545454e-07,41.8076711 1.73655015,43.5555711 3.86363636,43.5555711 L8.37922273,43.5555711 C8.78838182,44.7997822 9.27558636,46.0181711 9.85227273,47.17706 L6.66477273,50.3853933 C5.16081364,51.89926 5.16081364,54.36466 6.66477273,55.8784489 L13.2329545,62.48956 C14.7369909,64.0034267 17.2104136,64.0034267 18.71445,62.48956 L21.90195,59.2812267 C23.0581045,59.8644822 24.2585364,60.3749378 25.5,60.7881711 L25.5,65.3333489 C25.5,67.4743378 27.23655,69.2222378 29.3636364,69.2222378 L38.6363636,69.2222378 C40.76345,69.2222378 42.5,67.4743378 42.5,65.3333489 L42.5,60.7881711 C43.7414636,60.3749378 44.94205,59.8644822 46.09805,59.2812267 L49.28555,62.48956 C50.7895864,64.0034267 53.2630091,64.0034267 54.7670455,62.48956 L61.3352273,55.8784489 C62.8391864,54.36466 62.8391864,51.89926 61.3352273,50.3853933 L58.1477273,47.17706 C58.7244136,46.0181711 59.2116182,44.7997822 59.6207773,43.5555711 L64.1363636,43.5555711 C66.26345,43.5555711 68,41.8076711 68,39.6666822 L68,30.3333256 C68,28.1923522 66.26345,26.44446 64.1363636,26.44446 L59.6448864,26.44446 C59.2331773,25.1882089 58.7057909,23.9923756 58.1235409,22.8229322 L61.3352273,19.5902933 C62.8391864,18.0764422 62.8391864,15.6110889 61.3352273,14.0972378 L54.7670455,7.48612667 C53.2630091,5.97229889 50.7895864,5.97229889 49.28555,7.48612667 L46.09805,10.69446 C44.9418182,10.11122 43.7414636,9.60076444 42.5,9.18751556 L42.5,4.66668222 C42.5,2.52568556 40.76345,0.777793333 38.6363636,0.777793333 L29.3636364,0.777793333 Z M29.3636364,2.33334889 L38.6363636,2.33334889 C39.9340045,2.33334889 40.9545455,3.36055222 40.9545455,4.66668222 L40.9545455,9.72223778 C40.9622727,10.0497989 41.1975682,10.3593311 41.5099045,10.4514044 C43.0568273,10.9292322 44.5257818,11.5500933 45.9289773,12.2986267 C46.2223818,12.4554656 46.6154682,12.3929867 46.8465909,12.1527933 L50.3962682,8.57987667 C51.3140364,7.65621111 52.7385591,7.65621111 53.65625,8.57987667 L60.2244318,15.1909878 C61.1420455,16.11463 61.1420455,17.5729011 60.2244318,18.4965433 L56.6746773,22.06946 C56.4437091,22.3078022 56.3921682,22.7026956 56.5539773,22.9930711 C57.29765,24.4054378 57.8904091,25.8840244 58.3650955,27.4409878 C58.45875,27.7631433 58.7801273,28.0030644 59.1136364,28.0000156 L64.1363636,28.0000156 C65.4340045,28.0000156 66.4545455,29.0272189 66.4545455,30.3333256 L66.4545455,39.6666822 C66.4545455,40.9728044 65.4340045,42.0000156 64.1363636,42.0000156 L59.1136364,42.0000156 C58.7860773,41.9922378 58.4674045,42.2214489 58.3650955,42.5347378 C57.8904091,44.0916933 57.29765,45.5945933 56.5539773,47.00696 C56.4033727,47.2921711 56.4543727,47.6714933 56.6746773,47.9062267 L60.2244318,51.4791822 C61.1420455,52.4027933 61.1420455,53.8610489 60.2244318,54.7847378 L53.65625,61.3958489 C52.7385591,62.3195378 51.3140364,62.3195378 50.3962682,61.3958489 L46.8465909,57.8228933 C46.6154682,57.5827156 46.2223818,57.52026 45.9289773,57.67706 C44.5257818,58.4255933 43.0566727,59.0464933 41.5099045,59.5242822 C41.1899955,59.6187044 40.9515318,59.9421044 40.9545455,60.2777933 L40.9545455,65.3333489 C40.9545455,66.6394711 39.9340045,67.6666822 38.6363636,67.6666822 L29.3636364,67.6666822 C28.0659955,67.6666822 27.0454545,66.6394711 27.0454545,65.3333489 L27.0454545,60.2777933 C27.0454545,59.9421044 26.8100818,59.6187044 26.4900955,59.5242822 C24.9431727,59.0464933 23.4742955,58.4255933 22.0710227,57.67706 C21.7776182,57.52026 21.3845318,57.5827156 21.1534091,57.8228933 L17.6037318,61.3958489 C16.6859636,62.3195378 15.2614409,62.3195378 14.34375,61.3958489 L7.77556818,54.7847378 C6.85795455,53.8610489 6.85795455,52.4027933 7.77556818,51.4791822 L11.3253227,47.9062267 C11.5456273,47.6714933 11.5966273,47.2921711 11.4460227,47.00696 C10.70235,45.5945933 10.1095909,44.0916933 9.63490455,42.5347378 C9.53267273,42.2214489 9.21392273,41.9937933 8.88636364,42.0000156 L3.86363636,42.0000156 C2.56599561,42.0000156 1.5454547,40.9728044 1.5454547,39.6666822 L1.5454547,30.3333256 C1.5454547,29.0272189 2.56599561,28.0000156 3.86363636,28.0000156 L8.88636364,28.0000156 C9.21987273,28.0031267 9.54125,27.7631433 9.63490455,27.4409878 C10.1095909,25.8840244 10.70235,24.4054378 11.4460227,22.9930711 C11.6078318,22.7026956 11.5562909,22.3078022 11.3253227,22.06946 L7.77556818,18.4965433 C6.85795455,17.5729011 6.85795455,16.11463 7.77556818,15.1909878 L14.34375,8.57987667 C15.2614409,7.65621111 16.6859636,7.65621111 17.6037318,8.57987667 L21.1534091,12.1527933 C21.3845318,12.3929867 21.7776182,12.4554656 22.0710227,12.2986267 C23.4742955,11.5500856 24.94325,10.9292322 26.4900955,10.4514044 C26.8023545,10.3593311 27.0381909,10.0497989 27.0454545,9.72223778 L27.0454545,4.66668222 C27.0454545,3.36055222 28.0659955,2.33334889 29.3636364,2.33334889 Z M34,20.2222378 C25.9006591,20.2222378 19.3181818,26.8476133 19.3181818,35.0000156 C19.3181818,43.1522933 25.9006591,49.7777933 34,49.7777933 C42.0994182,49.7777933 48.6818182,43.1522933 48.6818182,35.0000156 C48.6818182,26.8476133 42.0994182,20.2222378 34,20.2222378 Z M34,21.7777933 C41.2641773,21.7777933 47.1363636,27.68829 47.1363636,35.0000156 C47.1363636,42.3115933 41.2641773,48.2222378 34,48.2222378 C26.7358227,48.2222378 20.8636364,42.3115933 20.8636364,35.0000156 C20.8636364,27.6882822 26.7358227,21.7777933 34,21.7777933 Z" id="settings-icon" fill="#000000" fill-rule="nonzero"></path>
    </g>
</svg>

<svg width="68" height="70" viewBox="0 0 68 70" xmlns="http://www.w3.org/2000/svg"><title>settings-icon</title><path d="M29.364.778c-2.127 0-3.864 1.748-3.864 3.889v4.52a26.763 26.763 0 0 0-3.598 1.507l-3.188-3.208a3.876 3.876 0 0 0-5.481 0l-6.568 6.611a3.908 3.908 0 0 0 0 5.493l3.211 3.233c-.582 1.17-1.11 2.365-1.52 3.621H3.863C1.737 26.444 0 28.192 0 30.334v9.333c0 2.14 1.737 3.889 3.864 3.889h4.515c.41 1.244.897 2.462 1.473 3.621l-3.187 3.208a3.908 3.908 0 0 0 0 5.493l6.568 6.612a3.876 3.876 0 0 0 5.481 0l3.188-3.209a26.763 26.763 0 0 0 3.598 1.507v4.545c0 2.141 1.737 3.89 3.864 3.89h9.272c2.127 0 3.864-1.749 3.864-3.89v-4.545a26.754 26.754 0 0 0 3.598-1.507l3.188 3.209a3.876 3.876 0 0 0 5.481 0l6.568-6.612a3.908 3.908 0 0 0 0-5.493l-3.187-3.208a27.233 27.233 0 0 0 1.473-3.621h4.515c2.127 0 3.864-1.748 3.864-3.89v-9.333c0-2.14-1.737-3.889-3.864-3.889h-4.491c-.412-1.256-.94-2.452-1.521-3.621l3.211-3.233a3.908 3.908 0 0 0 0-5.493l-6.568-6.61a3.876 3.876 0 0 0-5.481 0l-3.188 3.207A26.771 26.771 0 0 0 42.5 9.188V4.667c0-2.141-1.737-3.89-3.864-3.89h-9.272zm0 1.555h9.272a2.304 2.304 0 0 1 2.319 2.334v5.055a.8.8 0 0 0 .555.73 25.112 25.112 0 0 1 4.419 1.847.791.791 0 0 0 .918-.146l3.55-3.573a2.264 2.264 0 0 1 3.26 0l6.567 6.611a2.329 2.329 0 0 1 0 3.306l-3.55 3.572a.804.804 0 0 0-.12.924 25.375 25.375 0 0 1 1.811 4.448.796.796 0 0 0 .749.559h5.022a2.304 2.304 0 0 1 2.319 2.333v9.334A2.304 2.304 0 0 1 64.136 42h-5.022a.793.793 0 0 0-.749.535c-.475 1.557-1.067 3.06-1.811 4.472-.15.285-.1.664.12.9l3.55 3.572a2.329 2.329 0 0 1 0 3.306l-6.568 6.61a2.264 2.264 0 0 1-3.26 0l-3.55-3.572a.791.791 0 0 0-.917-.146 25.114 25.114 0 0 1-4.42 1.847.8.8 0 0 0-.554.754v5.055a2.304 2.304 0 0 1-2.319 2.334h-9.272a2.304 2.304 0 0 1-2.319-2.334v-5.055a.804.804 0 0 0-.555-.754 25.112 25.112 0 0 1-4.419-1.847.791.791 0 0 0-.918.146l-3.55 3.573a2.264 2.264 0 0 1-3.26 0l-6.567-6.611a2.329 2.329 0 0 1 0-3.306l3.55-3.573a.803.803 0 0 0 .12-.899c-.744-1.412-1.336-2.915-1.811-4.472A.795.795 0 0 0 8.886 42H3.864a2.304 2.304 0 0 1-2.319-2.333v-9.334A2.304 2.304 0 0 1 3.864 28h5.022a.796.796 0 0 0 .749-.559 25.375 25.375 0 0 1 1.811-4.448.804.804 0 0 0-.12-.924l-3.55-3.572a2.329 2.329 0 0 1 0-3.306l6.568-6.611a2.264 2.264 0 0 1 3.26 0l3.55 3.573c.23.24.624.302.917.146a25.117 25.117 0 0 1 4.42-1.848.799.799 0 0 0 .554-.729V4.667a2.304 2.304 0 0 1 2.319-2.334zM34 20.223c-8.1 0-14.682 6.625-14.682 14.777S25.901 49.778 34 49.778c8.1 0 14.682-6.626 14.682-14.778 0-8.152-6.583-14.778-14.682-14.778zm0 1.555c7.264 0 13.136 5.91 13.136 13.222 0 7.312-5.872 13.222-13.136 13.222-7.264 0-13.136-5.91-13.136-13.222 0-7.312 5.872-13.222 13.136-13.222z" fill="#000" fill-rule="nonzero"/></svg>
